images/prologue/png/first_step.svg

<svg width="116" height="35" viewBox="0 0 116 35" fill="none" xmlns="http://www.w3.org/2000/svg">
<g clip-path="url(#clip0_3814_1579)">
<path d="M7.01427 2.33V1.16H0.280273V2.33H2.99727V10H4.29727V2.33H7.01427ZM10.7768 0.899999V10H12.0768V4.67H14.9368V10H16.2368V3.5H12.0768V0.899999H10.7768ZM23.3093 10.13C23.8033 10.13 24.1673 10.13 25.1813 9.87V8.726C24.3363 8.96 23.8293 8.96 23.3093 8.96C21.7883 8.96 21.4243 8.245 21.3333 7.335H25.6233V6.62C25.6233 4.579 24.8173 3.37 22.8153 3.37C20.8133 3.37 20.0073 4.709 20.0073 6.75C20.0073 8.037 20.3713 10.13 23.3093 10.13ZM21.3073 6.165C21.3723 5.112 21.8143 4.54 22.8153 4.54C23.8683 4.54 24.2973 5.034 24.3233 6.165H21.3073ZM41.5982 6.555V5.385H37.9712V2.33H42.3652V1.16H36.6712V10H37.9712V6.555H41.5982ZM46.1363 0.899999V2.2H47.4363V0.899999H46.1363ZM46.1363 3.5V10H47.4363V3.5H46.1363ZM55.2684 4.67V3.5H51.4724V10H52.7724V4.67H55.2684ZM61.5353 10.13C63.0563 10.13 63.9793 9.285 63.9793 8.18C63.9793 6.984 63.2773 6.581 61.3533 6.061C60.2483 5.762 60.0793 5.515 60.0793 5.151C60.0793 4.826 60.3003 4.54 60.9633 4.54C61.6783 4.54 62.5103 4.748 63.4593 5.216V4.046C62.8223 3.604 61.9643 3.37 61.0933 3.37C59.7023 3.37 58.7793 4.111 58.7793 5.19C58.7793 6.217 59.2863 6.828 61.1453 7.231C62.3413 7.491 62.6793 7.738 62.6793 8.193C62.6793 8.596 62.3803 8.96 61.5353 8.96C60.5733 8.96 59.9623 8.726 58.7793 7.985V9.298C59.7283 9.935 60.5213 10.13 61.5353 10.13ZM69.4388 8.83V4.67H71.1548V3.5H69.4388V0.899999H68.1388V3.5H67.0988V4.67H68.1388V10H71.1548V8.83H69.4388ZM83.5011 8.83V1.16H82.2011V10H87.1151V8.83H83.5011ZM93.9211 10.13C94.4151 10.13 94.7791 10.13 95.7931 9.87V8.726C94.9481 8.96 94.4411 8.96 93.9211 8.96C92.4001 8.96 92.0361 8.245 91.9451 7.335H96.2351V6.62C96.2351 4.579 95.4291 3.37 93.4271 3.37C91.4251 3.37 90.6191 4.709 90.6191 6.75C90.6191 8.037 90.9831 10.13 93.9211 10.13ZM91.9191 6.165C91.9841 5.112 92.4261 4.54 93.4271 4.54C94.4801 4.54 94.9091 5.034 94.9351 6.165H91.9191ZM101.941 10.13C102.851 10.13 103.358 9.87 103.748 9.35V10H105.828V8.7H105.048V3.5H100.368V4.67H103.748V6.36C103.358 5.84 102.851 5.58 101.941 5.58C100.355 5.58 99.6145 6.724 99.6145 7.855C99.6145 8.986 100.355 10.13 101.941 10.13ZM102.331 8.96C101.382 8.96 100.914 8.505 100.914 7.855C100.914 7.205 101.382 6.75 102.331 6.75C103.28 6.75 103.748 7.205 103.748 7.855C103.748 8.505 103.28 8.96 102.331 8.96ZM112.97 3.37C112.06 3.37 111.423 3.721 111.033 4.28V3.5H109.733V12.08H111.033V9.22C111.423 9.779 112.06 10.13 112.97 10.13C115.076 10.13 115.817 8.661 115.817 6.75C115.817 4.839 115.076 3.37 112.97 3.37ZM112.775 8.96C111.501 8.96 111.033 8.31 111.033 6.75C111.033 5.19 111.501 4.54 112.775 4.54C114.049 4.54 114.517 5.19 114.517 6.75C114.517 8.31 114.049 8.96 112.775 8.96Z" fill="white"/>
<path d="M2.23027 32.83L4.25827 30.867C5.38927 29.775 5.97427 29.021 5.97427 27.76C5.97427 26.499 5.23327 25.03 3.12727 25.03C1.02127 25.03 0.280273 26.499 0.280273 28.15H1.58027C1.58027 26.85 2.04827 26.2 3.12727 26.2C4.20627 26.2 4.67427 26.785 4.67427 27.695C4.67427 28.644 4.15427 29.216 2.98427 30.308L0.280273 32.83V34H5.84427V32.83H2.23027ZM12.5828 34.13C14.8188 34.13 15.5598 32.661 15.5598 31.27C15.5598 29.489 14.3508 28.67 12.7258 28.93L15.2998 26.33V25.16H9.99574V26.33H13.5838L11.2828 28.67L11.8028 29.84H12.7778C13.5968 29.84 14.2598 30.165 14.2598 31.27C14.2598 32.31 13.7918 32.96 12.5828 32.96C11.3738 32.96 10.9058 32.31 10.9058 31.27H9.60574C9.60574 32.661 10.3468 34.13 12.5828 34.13ZM23.0004 25.03C20.2964 25.03 19.4644 27.11 19.4644 29.58C19.4644 32.05 20.2964 34.13 23.0004 34.13C25.7044 34.13 26.5364 32.05 26.5364 29.58C26.5364 27.11 25.7044 25.03 23.0004 25.03ZM25.2364 29.58C25.2364 30.308 25.1844 30.906 25.0674 31.387L21.6484 26.551C21.9864 26.317 22.4284 26.2 23.0004 26.2C24.7294 26.2 25.2364 27.227 25.2364 29.58ZM20.7644 29.58C20.7644 28.865 20.8164 28.267 20.9204 27.786L24.3394 32.609C24.0144 32.843 23.5724 32.96 23.0004 32.96C21.2584 32.96 20.7644 31.933 20.7644 29.58ZM33.8493 25.03C31.1453 25.03 30.3133 27.11 30.3133 29.58C30.3133 32.05 31.1453 34.13 33.8493 34.13C36.5533 34.13 37.3853 32.05 37.3853 29.58C37.3853 27.11 36.5533 25.03 33.8493 25.03ZM36.0853 29.58C36.0853 30.308 36.0333 30.906 35.9163 31.387L32.4973 26.551C32.8353 26.317 33.2773 26.2 33.8493 26.2C35.5783 26.2 36.0853 27.227 36.0853 29.58ZM31.6133 29.58C31.6133 28.865 31.6653 28.267 31.7693 27.786L35.1883 32.609C34.8633 32.843 34.4213 32.96 33.8493 32.96C32.1073 32.96 31.6133 31.933 31.6133 29.58ZM41.4162 29.502V30.672H45.9922V29.502H41.4162ZM51.968 32.83L53.996 30.867C55.127 29.775 55.712 29.021 55.712 27.76C55.712 26.499 54.971 25.03 52.865 25.03C50.759 25.03 50.018 26.499 50.018 28.15H51.318C51.318 26.85 51.786 26.2 52.865 26.2C53.944 26.2 54.412 26.785 54.412 27.695C54.412 28.644 53.892 29.216 52.722 30.308L50.018 32.83V34H55.582V32.83H51.968ZM62.3205 34.13C64.5565 34.13 65.2975 32.661 65.2975 31.27C65.2975 29.489 64.0885 28.67 62.4635 28.93L65.0375 26.33V25.16H59.7335V26.33H63.3215L61.0205 28.67L61.5405 29.84H62.5155C63.3345 29.84 63.9975 30.165 63.9975 31.27C63.9975 32.31 63.5295 32.96 62.3205 32.96C61.1115 32.96 60.6435 32.31 60.6435 31.27H59.3435C59.3435 32.661 60.0845 34.13 62.3205 34.13ZM72.4131 34.13C74.9221 34.13 75.6241 32.83 75.6241 31.66C75.6241 30.542 75.2731 29.684 73.6871 29.294V29.086C74.8181 28.696 75.1041 28.124 75.1041 27.24C75.1041 26.07 74.4021 25.03 72.4131 25.03C70.4241 25.03 69.7221 26.07 69.7221 27.24C69.7221 28.124 70.0081 28.696 71.1391 29.086V29.294C69.5531 29.684 69.2021 30.529 69.2021 31.66C69.2021 32.83 69.9041 34.13 72.4131 34.13ZM72.4131 28.605C71.3861 28.605 71.0221 28.098 71.0221 27.435C71.0221 26.642 71.3861 26.2 72.4131 26.2C73.4271 26.2 73.8041 26.642 73.8041 27.435C73.8041 28.098 73.4271 28.605 72.4131 28.605ZM72.4131 32.96C70.8661 32.96 70.5021 32.258 70.5021 31.335C70.5021 30.412 70.8661 29.775 72.4131 29.775C73.9471 29.775 74.3241 30.412 74.3241 31.335C74.3241 32.258 73.9471 32.96 72.4131 32.96ZM82.7056 25.03C79.7676 25.03 79.4036 27.383 79.4036 28.67V30.36C79.4036 32.648 80.2096 34.13 82.5106 34.13C84.8116 34.13 85.6176 32.661 85.6176 31.01C85.6176 29.359 84.8116 27.89 82.7056 27.89C81.7956 27.89 81.0936 28.371 80.7036 28.8C80.7036 27.643 80.7426 26.2 82.7056 26.2C83.2256 26.2 83.8626 26.2 84.7076 26.434V25.29C83.6936 25.03 83.1996 25.03 82.7056 25.03ZM82.5106 29.047C83.7846 29.047 84.3176 29.71 84.3176 31.01C84.3176 32.31 83.7846 32.96 82.5106 32.96C81.2366 32.96 80.7036 31.92 80.7036 30.88C80.7036 29.71 81.2366 29.047 82.5106 29.047Z" fill="white" fill-opacity="0.33"/>
</g>
<defs>
<clipPath id="clip0_3814_1579">
<rect width="116" height="35" fill="white"/>
</clipPath>
</defs>
</svg>

<svg xmlns="http://www.w3.org/2000/svg" width="116" height="35" fill="none"><g fill="#fff" clip-path="url(#a)"><path d="M7.014 2.33V1.16H.28v1.17h2.717V10h1.3V2.33h2.717ZM10.777.9V10h1.3V4.67h2.86V10h1.3V3.5h-4.16V.9h-1.3Zm12.532 9.23c.494 0 .858 0 1.872-.26V8.726c-.845.234-1.352.234-1.872.234-1.52 0-1.885-.715-1.976-1.625h4.29V6.62c0-2.041-.806-3.25-2.808-3.25s-2.808 1.339-2.808 3.38c0 1.287.364 3.38 3.302 3.38Zm-2.002-3.965c.065-1.053.507-1.625 1.508-1.625 1.053 0 1.482.494 1.508 1.625h-3.016Zm20.291.39v-1.17h-3.627V2.33h4.394V1.16h-5.694V10h1.3V6.555h3.627ZM46.136.9v1.3h1.3V.9h-1.3Zm0 2.6V10h1.3V3.5h-1.3Zm9.132 1.17V3.5h-3.796V10h1.3V4.67h2.496Zm6.267 5.46c1.521 0 2.444-.845 2.444-1.95 0-1.196-.702-1.599-2.626-2.119-1.105-.299-1.274-.546-1.274-.91 0-.325.221-.611.884-.611.715 0 1.547.208 2.496.676v-1.17c-.637-.442-1.495-.676-2.366-.676-1.39 0-2.314.741-2.314 1.82 0 1.027.507 1.638 2.366 2.041 1.196.26 1.534.507 1.534.962 0 .403-.299.767-1.144.767-.962 0-1.573-.234-2.756-.975v1.313c.95.637 1.742.832 2.756.832Zm7.904-1.3V4.67h1.716V3.5h-1.716V.9h-1.3v2.6h-1.04v1.17h1.04V10h3.016V8.83h-1.716Zm14.062 0V1.16h-1.3V10h4.914V8.83h-3.614Zm10.42 1.3c.494 0 .858 0 1.872-.26V8.726c-.845.234-1.352.234-1.872.234-1.52 0-1.885-.715-1.976-1.625h4.29V6.62c0-2.041-.806-3.25-2.808-3.25S90.62 4.709 90.62 6.75c0 1.287.364 3.38 3.302 3.38ZM91.92 6.165c.065-1.053.507-1.625 1.508-1.625 1.053 0 1.482.494 1.508 1.625H91.92Zm10.022 3.965c.91 0 1.417-.26 1.807-.78V10h2.08V8.7h-.78V3.5h-4.68v1.17h3.38v1.69c-.39-.52-.897-.78-1.807-.78-1.586 0-2.326 1.144-2.326 2.275s.74 2.275 2.326 2.275Zm.39-1.17c-.949 0-1.417-.455-1.417-1.105 0-.65.468-1.105 1.417-1.105.949 0 1.417.455 1.417 1.105 0 .65-.468 1.105-1.417 1.105Zm10.639-5.59c-.91 0-1.547.351-1.937.91V3.5h-1.3v8.58h1.3V9.22c.39.559 1.027.91 1.937.91 2.106 0 2.847-1.469 2.847-3.38 0-1.911-.741-3.38-2.847-3.38Zm-.195 5.59c-1.274 0-1.742-.65-1.742-2.21s.468-2.21 1.742-2.21 1.742.65 1.742 2.21-.468 2.21-1.742 2.21Z"/><path fill-opacity=".33" d="m2.23 32.83 2.028-1.963c1.131-1.092 1.716-1.846 1.716-3.107 0-1.261-.74-2.73-2.847-2.73-2.106 0-2.847 1.469-2.847 3.12h1.3c0-1.3.468-1.95 1.547-1.95 1.08 0 1.547.585 1.547 1.495 0 .949-.52 1.521-1.69 2.613L.28 32.83V34h5.564v-1.17H2.23Zm10.353 1.3c2.236 0 2.977-1.469 2.977-2.86 0-1.781-1.21-2.6-2.834-2.34l2.574-2.6v-1.17H9.996v1.17h3.588l-2.301 2.34.52 1.17h.975c.819 0 1.482.325 1.482 1.43 0 1.04-.468 1.69-1.677 1.69-1.21 0-1.677-.65-1.677-1.69h-1.3c0 1.391.74 2.86 2.977 2.86ZM23 25.03c-2.704 0-3.536 2.08-3.536 4.55 0 2.47.832 4.55 3.536 4.55s3.536-2.08 3.536-4.55c0-2.47-.832-4.55-3.536-4.55Zm2.236 4.55c0 .728-.052 1.326-.169 1.807l-3.419-4.836c.338-.234.78-.351 1.352-.351 1.73 0 2.236 1.027 2.236 3.38Zm-4.472 0c0-.715.052-1.313.156-1.794l3.42 4.823c-.326.234-.768.351-1.34.351-1.742 0-2.236-1.027-2.236-3.38Zm13.085-4.55c-2.704 0-3.536 2.08-3.536 4.55 0 2.47.832 4.55 3.536 4.55s3.536-2.08 3.536-4.55c0-2.47-.832-4.55-3.536-4.55Zm2.236 4.55c0 .728-.052 1.326-.169 1.807l-3.419-4.836c.338-.234.78-.351 1.352-.351 1.73 0 2.236 1.027 2.236 3.38Zm-4.472 0c0-.715.052-1.313.156-1.794l3.42 4.823c-.326.234-.768.351-1.34.351-1.742 0-2.236-1.027-2.236-3.38Zm9.803-.078v1.17h4.576v-1.17h-4.576Zm10.552 3.328 2.028-1.963c1.131-1.092 1.716-1.846 1.716-3.107 0-1.261-.741-2.73-2.847-2.73s-2.847 1.469-2.847 3.12h1.3c0-1.3.468-1.95 1.547-1.95s1.547.585 1.547 1.495c0 .949-.52 1.521-1.69 2.613l-2.704 2.522V34h5.564v-1.17h-3.614Zm10.352 1.3c2.236 0 2.977-1.469 2.977-2.86 0-1.781-1.209-2.6-2.833-2.34l2.573-2.6v-1.17h-5.304v1.17h3.589l-2.302 2.34.52 1.17h.976c.819 0 1.482.325 1.482 1.43 0 1.04-.468 1.69-1.677 1.69-1.21 0-1.677-.65-1.677-1.69h-1.3c0 1.391.74 2.86 2.977 2.86Zm10.093 0c2.51 0 3.211-1.3 3.211-2.47 0-1.118-.35-1.976-1.937-2.366v-.208c1.131-.39 1.417-.962 1.417-1.846 0-1.17-.702-2.21-2.69-2.21-1.99 0-2.692 1.04-2.692 2.21 0 .884.286 1.456 1.417 1.846v.208c-1.586.39-1.937 1.235-1.937 2.366 0 1.17.702 2.47 3.211 2.47Zm0-5.525c-1.027 0-1.39-.507-1.39-1.17 0-.793.363-1.235 1.39-1.235 1.014 0 1.391.442 1.391 1.235 0 .663-.377 1.17-1.39 1.17Zm0 4.355c-1.547 0-1.91-.702-1.91-1.625s.363-1.56 1.91-1.56c1.534 0 1.911.637 1.911 1.56s-.377 1.625-1.91 1.625Zm10.293-7.93c-2.938 0-3.302 2.353-3.302 3.64v1.69c0 2.288.806 3.77 3.107 3.77 2.3 0 3.107-1.469 3.107-3.12s-.806-3.12-2.912-3.12c-.91 0-1.612.481-2.002.91 0-1.157.039-2.6 2.002-2.6.52 0 1.157 0 2.002.234V25.29c-1.014-.26-1.508-.26-2.002-.26Zm-.195 4.017c1.274 0 1.807.663 1.807 1.963s-.533 1.95-1.807 1.95-1.807-1.04-1.807-2.08c0-1.17.533-1.833 1.807-1.833Z"/></g><defs><clipPath id="a"><path fill="#fff" d="M0 0h116v35H0z"/></clipPath></defs></svg>
